X:260
M:C|
L:1/8
K:E Minor
~E2 B^G BEEe|~E2 B^c dBAF|~E2 EF EFGA|BdAG FDDF||
Eee^d BEEF|Eee^c dBAF|Eee^d B^cde|faef dBAF|EeBe dEBE|
EeBe dBAF|EeBe deBe|faef dBAF||

